remix/System/settings-line.svg

<svg viewBox="0 0 24 24" fill="currentColor" xmlns="http://www.w3.org/2000/svg"><path d="M12 1L21.5 6.5V17.5L12 23L2.5 17.5V6.5L12 1ZM12 3.311L4.5 7.65311V16.3469L12 20.689L19.5 16.3469V7.65311L12 3.311ZM12 16C9.79086 16 8 14.2091 8 12C8 9.79086 9.79086 8 12 8C14.2091 8 16 9.79086 16 12C16 14.2091 14.2091 16 12 16ZM12 14C13.1046 14 14 13.1046 14 12C14 10.8954 13.1046 10 12 10C10.8954 10 10 10.8954 10 12C10 13.1046 10.8954 14 12 14Z"/></svg>

<svg viewBox="0 0 24 24" xmlns="http://www.w3.org/2000/svg"><path fill="none" d="M0 0h24v24H0Z"/><path d="M12 1l9.5 5.5v11L12 23l-9.5-5.5v-11L12 1Zm0 2.31L4.5 7.65v8.69l7.5 4.34 7.5-4.35v-8.7L12 3.28Zm0 12.689v0c-2.21 0-4-1.8-4-4 0-2.21 1.79-4 4-4v0c2.2 0 4 1.79 4 4 0 2.2-1.8 4-4 4Zm0-2v0c1.1 0 2-.9 2-2 0-1.11-.9-2-2-2v0c-1.11 0-2 .89-2 2 0 1.1.89 2 2 2Z"/></svg>
